svgs/thin/wreath.svg

<svg xmlns="http://www.w3.org/2000/svg" viewBox="0 0 448 512"><!--! Font Awesome Pro 6.3.0 by @fontawesome - https://fontawesome.com License - https://fontawesome.com/license (Commercial License) Copyright 2023 Fonticons, Inc. --><path d="M290.3 385.1L224 407.6l-66.19-22.5c-7-2.281-14.75-1-20.7 3.312C131.3 392.7 128 399.1 128 406.1v83.91c0 6.906 3.281 13.28 8.984 17.47c5.906 4.344 13.64 5.594 20.94 3.406L224 488.5l66.19 22.41C292.5 511.7 294.9 512 297.3 512c4.844 0 9.641-1.5 13.64-4.406C316.7 503.4 320 496.1 320 489.1v-83.91c0-6.938-3.281-13.31-9-17.5C305.1 384.2 297.4 382.9 290.3 385.1zM304 489.1c0 2.531-1.75 4.094-2.516 4.656c-1.859 1.344-4.172 1.781-6.281 1.031L224 471.6l-71.03 24.03c-2.172 .6562-4.641 .3125-6.516-1.062C145.5 493.9 144 492.4 144 489.1v-83.91c0-2.469 1.578-4 2.516-4.688c1.859-1.344 4.188-1.781 6.266-1.062L224 424.5l71.11-24.13c2.188-.6875 4.625-.25 6.422 1.062C302.5 402.1 304 403.6 304 406.1V489.1zM447.1 224c0-15.78-6.843-30.59-18.61-40.9c6.953-13.91 7.548-30.2 1.454-44.89c-6.188-14.78-18.39-25.9-33.5-30.77c1.203-15.78-4.199-31.01-15.03-41.83c-10.84-10.88-25.99-16.11-41.77-14.96c-4.891-15.22-16.03-27.47-30.81-33.54c-14.44-6.031-30.7-5.403-44.83 1.535c-10.3-11.81-25.12-18.66-40.92-18.66c-15.78 0-30.58 6.844-40.88 18.63c-13.97-6.969-30.26-7.628-44.88-1.535C123.4 23.34 112.3 35.63 107.5 50.66C91.72 49.22 76.5 54.76 65.72 65.58C54.77 76.39 49.44 91.66 50.73 107.4C35.53 112.3 23.24 123.4 17.19 138.2C11.11 152.7 11.81 168.9 18.77 183C6.906 193.3 .0006 208.1 .0006 223.1c0 15.75 6.843 30.53 18.61 40.88c-6.953 13.91-7.591 30.18-1.482 44.86c6.141 14.6 18.4 25.58 33.58 30.42c-1.406 16.1 3.89 31.15 14.1 42.15c9 9.125 21.05 14.45 34.81 15.35c.1875 .0313 .3594 .0313 .5469 .0313c4.172 0 7.688-3.25 7.969-7.469c.2969-4.406-3.047-8.219-7.453-8.5c-6.828-.4687-16.62-2.688-24.55-10.72c-8.969-8.875-12.44-21.69-9.516-35.16c.4687-2.125 .0469-4.344-1.172-6.156s-3.125-3.031-5.266-3.406c-13.45-2.344-24.09-10.62-29.17-22.69c-5-12.03-3.594-25.56 3.766-36.25C36.91 265.6 37.36 263.4 36.95 261.3C36.53 259.2 35.3 257.3 33.5 256.1C22.55 248.9 16 236.9 16 223.1c0-12.94 6.578-24.94 17.58-32.1c1.797-1.188 3.047-3.031 3.484-5.125C37.48 184.7 37.05 182.5 35.86 180.7c-7.375-10.94-8.797-24.5-3.812-36.38c4.953-12.09 15.8-20.69 29.03-23C63.22 120.9 65.13 119.7 66.34 117.9S67.98 113.8 67.52 111.7C64.61 98.47 68.08 85.82 77.06 76.94C85.94 68.07 98.69 64.72 111.9 67.41C114.1 67.88 116.3 67.44 118.1 66.22c1.812-1.25 3.031-3.156 3.391-5.312C123.7 47.88 132.2 37 144.4 31.88c11.91-5 25.5-3.562 36.28 3.812c1.766 1.25 3.969 1.594 6.062 1.25c2.109-.4062 3.969-1.656 5.141-3.438C199.1 22.53 211.1 16 224 16s24.94 6.531 32.13 17.5c1.172 1.781 3.016 3 5.109 3.438c2.109 .4062 4.281 0 6.047-1.219c10.91-7.312 24.52-8.812 36.38-3.812c12.08 4.938 20.67 15.81 23 29.06c.375 2.156 1.594 4.031 3.406 5.25c1.797 1.219 4.016 1.625 6.141 1.188c13.16-2.812 26.11 .7813 34.86 9.531c8.859 8.844 12.33 21.56 9.516 34.85c-.4531 2.125-.0156 4.344 1.203 6.125C383 119.7 384.9 120.9 387 121.3c13.14 2.312 24 10.91 29.06 23.03c5 12.03 3.594 25.6-3.766 36.28c-1.234 1.75-1.688 3.939-1.281 6.064c.4219 2.125 1.672 3.969 3.469 5.156C425.5 199 432 211 432 223.1c0 12.91-6.453 24.85-17.28 32c-1.781 1.188-3.031 3.062-3.438 5.156c-.4062 2.125 .0625 4.312 1.281 6.062c7.406 10.75 8.859 24.28 3.891 36.22c-5.031 12.06-15.66 20.35-29.17 22.72c-2.156 .375-4.047 1.594-5.266 3.406s-1.641 4.031-1.172 6.156c2.906 13.41-.5625 26.22-9.547 35.19c-8.141 8.158-17.86 10.31-24.56 10.69c-4.422 .2813-7.781 4.062-7.531 8.469c.2656 4.406 3.891 7.562 8.438 7.531c13.61-.8125 25.71-6.109 34.98-15.39c10.95-10.94 16.3-26.27 15.01-42.14c15.25-4.875 27.52-15.85 33.62-30.48c6.078-14.62 5.398-30.9-1.617-44.87C441.3 254.5 447.1 239.7 447.1 224zM316.2 192.1c-1.031-3.312-1.359-7-1.75-10.66c-.7344-7.031-1.578-14.97-6.156-21.59c-4.75-6.781-11.98-10.19-18.38-13.22c-3.141-1.469-6.297-2.906-8.844-4.781c-2.375-1.812-4.719-4.531-7.219-7.406C269.2 129.1 264 123.9 256.3 121.3c-7.484-2.471-15.12-.8438-21.86 .5938c-7.5 1.625-13.31 1.625-20.81 0C206.8 120.4 199.2 118.8 191.7 121.3C184 123.9 178.8 129.1 174.2 135.3c-2.5 2.875-4.844 5.594-7.234 7.406C164.5 144.6 161.3 146.1 157.8 147.7C151.5 150.7 144.4 154 139.7 160.8c-4.547 6.594-5.391 14.53-6.125 21.56C133.2 185.1 132.8 189.7 131.8 192.9C130.8 196 129.1 199.1 127.4 202.2C123.9 208.4 120 215.5 120 224c0 8.469 3.922 15.59 7.391 21.84c1.703 3.096 3.453 6.127 4.422 9.189c1.031 3.312 1.359 7 1.75 10.66c.7344 7.031 1.578 14.97 6.156 21.6c4.75 6.781 11.98 10.19 18.38 13.22C161.2 301.1 164.4 303.4 166.9 305.3C169.3 307.1 171.7 309.8 174.2 312.7C178.8 318.1 184 324.1 191.7 326.7c2.812 .9375 5.641 1.281 8.438 1.281c4.656 0 9.219-.9687 13.42-1.875c7.5-1.625 13.31-1.625 20.81 0c6.734 1.438 14.33 3.125 21.91 .5625c7.688-2.625 12.92-8.656 17.53-14c2.5-2.877 4.844-5.596 7.234-7.408c2.422-1.844 5.656-3.375 9.078-4.969c6.297-2.969 13.42-6.312 18.16-13.06c4.547-6.594 5.391-14.53 6.125-21.56c.3906-3.625 .7187-7.312 1.734-10.62c1-3.125 2.734-6.125 4.438-9.221C324.1 239.6 328 232.5 328 224c0-8.471-3.922-15.6-7.391-21.85C318.9 199.1 317.2 196 316.2 192.1zM306.6 238.1c-2.219 4.031-4.383 8.062-5.68 12.13c0 .0313 0 0 0 0c-1.406 4.562-1.914 9.25-2.383 13.78c-.5938 5.594-1.156 10.88-3.344 14.06c-2.266 3.252-6.922 5.408-11.84 7.752c-4.016 1.875-8.172 3.844-11.94 6.688c-3.719 2.812-6.734 6.312-9.672 9.688c-3.594 4.188-7 8.125-10.53 9.312c-3.344 1.127-8.266 .0313-13.42-1.062c-8.812-1.875-18.75-1.875-27.56 0C205.1 311.6 200.2 312.6 196.8 311.6C193.3 310.4 189.9 306.4 186.3 302.2C183.3 298.9 180.3 295.4 176.5 292.5c-3.422-2.531-7.5-4.5-11.59-6.438C159.9 283.7 155.1 281.4 152.8 278.1c-2.219-3.219-2.781-8.5-3.375-14.09C149 259.5 148.5 254.9 147.1 250.2C145.8 246.2 143.6 242.2 141.4 238.1C138.6 233.1 136 228.3 136 223.1S138.6 214.9 141.4 209.9c2.219-4.031 4.375-8.031 5.688-12.16C148.5 193.2 149 188.5 149.5 183.1C150.1 178.4 150.6 173.3 152.8 170.1C155 166.9 159.7 164.5 164.7 162.2c4.016-1.875 8.172-3.844 11.94-6.688C180.3 152.7 183.3 149.2 186.3 145.8c3.594-4.188 7-8.125 10.53-9.312c1-.3438 2.141-.4687 3.391-.4687c2.922 0 6.406 .75 10.03 1.531c8.812 1.875 18.75 1.875 27.56 0c5.172-1.094 10.05-2.125 13.38-1.094c3.578 1.219 6.984 5.156 10.58 9.344c2.938 3.375 5.953 6.877 9.75 9.752c3.422 2.531 7.5 4.5 11.59 6.438c5.031 2.375 9.781 4.625 12.08 7.906c2.219 3.219 2.781 8.5 3.375 14.09c.4687 4.533 .9687 9.189 2.391 13.81c1.297 4.062 3.453 8.062 5.672 12.09c2.781 5.031 5.405 9.763 5.405 14.11S309.4 233.1 306.6 238.1z"/></svg>

<svg xmlns="http://www.w3.org/2000/svg" viewBox="0 0 448 512"><!-- Font Awesome Pro 6.0.0-alpha2 by @fontawesome - https://fontawesome.com License - https://fontawesome.com/license (Commercial License) --><path d="M290.25 385.148L224 407.648L157.812 385.148C150.812 382.867 143.062 384.148 137.109 388.461C131.312 392.68 128 399.117 128 406.086V489.998C128 496.904 131.281 503.279 136.984 507.469C142.891 511.812 150.625 513.062 157.922 510.875L224 488.498L290.188 510.906C292.5 511.656 294.891 512 297.266 512C302.109 512 306.906 510.5 310.906 507.594C316.688 503.373 320 496.967 320 489.998V406.086C320 399.148 316.719 392.773 311 388.586C305.078 384.211 297.375 382.898 290.25 385.148ZM304 489.998C304 492.529 302.25 494.092 301.484 494.654C299.625 495.998 297.312 496.436 295.203 495.686L224 471.621L152.969 495.654C150.797 496.311 148.328 495.967 146.453 494.592C145.547 493.904 144 492.404 144 489.998V406.086C144 403.617 145.578 402.086 146.516 401.398C148.375 400.055 150.703 399.617 152.781 400.336L224 424.525L295.109 400.398C297.297 399.711 299.734 400.148 301.531 401.461C302.453 402.148 304 403.648 304 406.086V489.998ZM448 223.982C448 208.199 441.156 193.418 429.391 183.104C436.344 169.197 436.969 152.885 430.875 138.195C424.687 123.414 412.453 112.318 397.344 107.443C398.547 91.662 393.203 76.441 382.375 65.629C371.531 54.752 356.328 49.502 340.547 50.658C335.656 35.439 324.547 23.188 309.766 17.125C295.328 11.094 279.031 11.719 264.906 18.656C254.609 6.844 239.797 0 224 0C208.219 0 193.406 6.844 183.109 18.625C169.141 11.656 152.828 11.031 138.203 17.125C123.375 23.375 112.313 35.627 107.531 50.658C91.719 49.221 76.562 54.783 65.781 65.598C54.828 76.41 49.438 91.662 50.734 107.443C35.531 112.318 23.312 123.414 17.266 138.195C11.188 152.666 11.812 168.947 18.766 183.041C6.906 193.324 0 208.137 0 223.982C0 239.732 6.844 254.516 18.609 264.859C11.656 278.766 11.031 295.049 17.141 309.736C23.281 324.332 35.531 335.301 50.703 340.145C49.297 356.24 54.594 371.303 65.703 382.305C74.703 391.43 86.75 396.742 100.516 397.648C100.703 397.68 100.875 397.68 101.062 397.68C105.234 397.68 108.75 394.43 109.031 390.211C109.328 385.805 105.984 381.992 101.578 381.711C94.75 381.242 84.953 379.023 77.031 370.99C68.062 362.115 64.594 349.303 67.516 335.832C67.984 333.707 67.562 331.488 66.344 329.676S63.219 326.645 61.078 326.27C47.625 323.926 36.984 315.645 31.906 303.58C26.906 291.549 28.312 278.016 35.672 267.328C36.906 265.578 37.359 263.391 36.953 261.266C36.531 259.172 35.297 257.297 33.5 256.109C22.547 248.891 16 236.889 16 223.982C16 211.043 22.578 199.043 33.578 191.887C35.375 190.699 36.625 188.855 37.062 186.762C37.484 184.668 37.047 182.479 35.859 180.697C28.484 169.76 27.063 156.197 32.047 144.32C37 132.227 47.844 123.633 61.078 121.32C63.219 120.945 65.125 119.725 66.344 117.912S67.984 113.85 67.516 111.725C64.609 98.475 68.078 85.816 77.062 76.941C85.938 68.066 98.688 64.723 111.922 67.41C114.078 67.879 116.297 67.441 118.094 66.223C119.906 64.973 121.125 63.066 121.484 60.91C123.656 47.877 132.234 37.002 144.391 31.877C156.297 26.877 169.891 28.314 180.672 35.689C182.438 36.939 184.641 37.283 186.734 36.939C188.844 36.533 190.703 35.283 191.875 33.502C199.062 22.531 211.078 16 224 16S248.938 22.531 256.125 33.502C257.297 35.283 259.141 36.502 261.234 36.939C263.344 37.346 265.516 36.939 267.281 35.721C278.187 28.408 291.797 26.908 303.656 31.908C315.734 36.846 324.328 47.721 326.656 60.973C327.031 63.129 328.25 65.004 330.062 66.223C331.859 67.441 334.078 67.848 336.203 67.41C349.359 64.598 362.312 68.191 371.062 76.941C379.922 85.785 383.391 98.506 380.578 111.787C380.125 113.912 380.562 116.131 381.781 117.912C383 119.725 384.891 120.945 387.031 121.32C400.172 123.633 411.031 132.227 416.094 144.352C421.094 156.385 419.688 169.947 412.328 180.635C411.094 182.385 410.641 184.574 411.047 186.699C411.469 188.824 412.719 190.668 414.516 191.855C425.469 199.043 432 211.043 432 223.982C432 236.889 425.547 248.828 414.719 255.984C412.937 257.172 411.687 259.047 411.281 261.141C410.875 263.266 411.344 265.453 412.562 267.203C419.969 277.953 421.422 291.486 416.453 303.424C411.422 315.488 400.797 323.77 387.281 326.145C385.125 326.52 383.234 327.738 382.016 329.551S380.375 333.582 380.844 335.707C383.75 349.115 380.281 361.928 371.297 370.896C363.156 379.055 353.437 381.211 346.734 381.586C342.312 381.867 338.953 385.648 339.203 390.055C339.469 394.461 343.094 397.617 347.641 397.586C361.25 396.773 373.344 391.492 382.609 382.211C393.562 371.271 398.922 355.928 397.625 340.051C412.875 335.176 425.141 324.207 431.234 309.58C437.312 294.955 436.641 278.672 429.625 264.703C441.25 254.453 448 239.701 448 223.982ZM316.188 192.98C315.156 189.668 314.828 185.98 314.438 182.322C313.703 175.291 312.859 167.354 308.281 160.729C303.531 153.947 296.297 150.539 289.906 147.508C286.766 146.039 283.609 144.602 281.062 142.727C278.687 140.914 276.344 138.195 273.844 135.32C269.234 129.977 264 123.945 256.266 121.289C248.781 118.818 241.141 120.445 234.406 121.883C226.906 123.508 221.094 123.508 213.594 121.883C206.844 120.445 199.234 118.756 191.688 121.32C184 123.945 178.766 129.977 174.156 135.32C171.656 138.195 169.312 140.914 166.922 142.727C164.5 144.57 161.266 146.102 157.844 147.695C151.547 150.664 144.422 154.01 139.688 160.76C135.141 167.354 134.297 175.291 133.563 182.322C133.172 185.98 132.844 189.668 131.828 192.918C130.844 196.043 129.094 199.074 127.391 202.168C123.922 208.418 120 215.543 120 224.014C120 232.482 123.922 239.607 127.391 245.857C129.094 248.953 130.844 251.984 131.812 255.047C132.844 258.359 133.172 262.047 133.562 265.703C134.297 272.734 135.141 280.674 139.719 287.299C144.469 294.08 151.703 297.486 158.094 300.518C161.234 301.986 164.391 303.424 166.938 305.299C169.312 307.111 171.656 309.83 174.156 312.707C178.766 318.051 184 324.082 191.734 326.738C194.547 327.676 197.375 328.02 200.172 328.02C204.828 328.02 209.391 327.051 213.594 326.145C221.094 324.52 226.906 324.52 234.406 326.145C241.141 327.582 248.734 329.27 256.312 326.707C264 324.082 269.234 318.051 273.844 312.707C276.344 309.83 278.688 307.111 281.078 305.299C283.5 303.455 286.734 301.924 290.156 300.33C296.453 297.361 303.578 294.018 308.312 287.268C312.859 280.674 313.703 272.734 314.437 265.703C314.828 262.078 315.156 258.391 316.172 255.078C317.172 251.953 318.906 248.953 320.609 245.857C324.078 239.607 328 232.482 328 224.014C328 215.543 324.078 208.418 320.609 202.168C318.906 199.074 317.156 196.043 316.188 192.98ZM306.594 238.139C304.375 242.17 302.219 246.17 300.922 250.234C300.922 250.266 300.906 250.297 300.906 250.297C299.5 254.859 299 259.516 298.531 264.047C297.938 269.641 297.375 274.922 295.188 278.109C292.922 281.361 288.266 283.518 283.344 285.861C279.328 287.736 275.172 289.705 271.406 292.549C267.688 295.361 264.672 298.861 261.734 302.236C258.141 306.424 254.734 310.361 251.203 311.549C247.859 312.676 242.937 311.58 237.781 310.486C228.969 308.611 219.031 308.611 210.219 310.486C205.078 311.611 200.188 312.645 196.844 311.58C193.266 310.361 189.859 306.424 186.266 302.236C183.328 298.861 180.312 295.361 176.516 292.486C173.094 289.955 169.016 287.986 164.922 286.049C159.891 283.674 155.141 281.424 152.844 278.141C150.625 274.922 150.062 269.641 149.469 264.047C149 259.516 148.5 254.859 147.078 250.234C145.781 246.17 143.625 242.17 141.406 238.139C138.625 233.107 136 228.357 136 224.014S138.625 214.918 141.406 209.887C143.625 205.855 145.781 201.855 147.094 197.73C148.5 193.168 149 188.512 149.469 183.979C150.062 178.385 150.625 173.104 152.812 169.916C155.078 166.666 159.734 164.51 164.656 162.166C168.672 160.291 172.828 158.322 176.594 155.479C180.312 152.666 183.328 149.164 186.266 145.789C189.859 141.602 193.266 137.664 196.797 136.477C197.797 136.133 198.938 136.008 200.188 136.008C203.109 136.008 206.594 136.758 210.219 137.539C219.031 139.414 228.969 139.414 237.781 137.539C242.953 136.445 247.828 135.414 251.156 136.445C254.734 137.664 258.141 141.602 261.734 145.789C264.672 149.164 267.688 152.666 271.484 155.541C274.906 158.072 278.984 160.041 283.078 161.979C288.109 164.354 292.859 166.604 295.156 169.885C297.375 173.104 297.938 178.385 298.531 183.979C299 188.512 299.5 193.168 300.922 197.793C302.219 201.855 304.375 205.855 306.594 209.887C309.375 214.918 312 219.67 312 224.014S309.375 233.107 306.594 238.139Z"/></svg>
